X:3480
T:Cottage Dance. GS.045
T:Kitty O'Lynn,aka. GS.045
M:6/8
L:1/8
Q:120
S:George Spencer m/s, Leeds,1831
R:Jig
O:England
A:Leeds
N:This tune also occurs as number 17, the marked note is different and
N:No.17 has  no repeats.
H:1831
Z:vmp.Cherri Graebe
K:C major
e/2d/2 | BGG GEG | AFA G2 e/2d/2 | BGG GEG | f3 fed |! BGG GEG | Ac"*"e
a3 |
 gag gfe | d3 c2 :||:
efg a2g | efg a2 g |! g2eg2e | ded fed | efg a2 g | efg a2g | g2eg2e | d
c
d c :||


